X:4761
T:Oh Dear, What Can the Matter Be
O:england
M:6/8
C:
S:Bacon (the common song tune)
N:
A:Wheatley
R:Jig
%P:A.(AB)$^{2n}$
P:A.(AB)2n
%:
%:
K:G
I:speed 300
P:A
dBc dBc | dBg dBG | cAB cAB | cAB cBA |\
dBc dBc | dBg dBG | EcB AGF | G3  G3  ||\
P:B
d3  d3  | dBg dBG | c3  c3  | cAB cBA |\
d3  d3  | dBg dBG | EcB AGF | G3  G3  ||
